X: 294
T:Ballycarroll Jig, The
M:6/8
L:1/8
C:Conor McCarthy
R:jig
D:Padraic O'Reilly: Down the Ivory Stairs
Z:Devin McCabe
K:F
cAG FGF|BGF EGC|BGF EGC|FAd cAB|
!cAG FGF|BGF EGC|B,CD CcB|1AFE F G/2A/2B:|2AFE FAc|
!:fcA F2^F|GBd GBd|fcA FGF|E/2F/2G C E/2F/2G C|
!fcA F2^F|GBd GBd|B,2D CcB|1AFE FAc:|2AFE F G/2A/2B||
